X: 36
T:Cliffs of Moher
R:Jig
Z:Boston, Madison, Vancouver
M:6/8
L:1/8
Q:3/8=120
K:G
|:eaa bag|e/f/af ged|c2A BAG|EFG ABc|
eaa bag|e/f/af ged|cAA BAG|EFG A3:|
e=fe dBA|e=fe dBA|G2d dBA|GAB dBd|
e=fe dBA|e=fe dBA|GAB dBG|E=FG A3|
~e3 dBA|~e3 dBA|~G3 dBA|GAB dBd|
e=fe dee|cee Bee|EFG BAG|EDB, A,3|]
